X:37
T:Humours of Whiskey, The
R:slip jig
H:See also #39, #7
D:Altan: Altan.
Z:id:hn-slipjig-37
M:9/8
K:Edor
G2A Bee Bee|GFG BGB AFD|G2A Bee Bee|dcd A2G FED:|
|:d2e fdf ecA|dcd fdf gfe|1 d2e fdf ecA|Bcd A2G FED:|2 d2e fga ecA|Bcd A2G FED||
